X: 42974
T: Willie Kennedy
R: strathspey
M: 4/4
K: Dmixolydian
b|A/A/A A3/2B/ c3/2B/A3/2F/|A/d3/2A/F3/2 E3/2F/G3/2B/|A/F3/2A3/2B/ c3/2B/A3/2B/|d3/2f/e3/2g/ f/d3/2 d:|
e|f/g3/2f3/2e/ d3/2e/f3/2d/|e/f3/2g3/2d/ A3/2F/ A2|f/g3/2f3/2e/ d3/2e/f3/2f/|a3/2b/a3/2g/ f/d3/2d3/2e|
f//b3/2e/f3/2 d3/2e/f3/2d/|e/f3/2g3/2B/ A3/2F/A/b3/2|a/f3/2g3/2e/ f3/2d/e3/2^c/|A3/2b/a3/2g/ f/d3/2 d||

